styles/4/Numix/24/places/default-fileopen.svg

<!-- Created with Inkscape (http://www.inkscape.org/) -->
<svg xmlns="http://www.w3.org/2000/svg" viewBox="0 0 24 24">
 <g transform="translate(0,-1028.3622)">
  <path d="m 5 0 c -1 0 -2 1 -2 2 l 0 8 c 0 1.108 0.446 2 1 2 l 16 0 c 0.554 0 1 -0.892 1 -2 l 0 -7 l -3 -3 l -13 0 z" transform="translate(0,1028.3622)" style="fill:#e3e1cf;fill-opacity:1;stroke:none"/>
  <rect width="22" height="17" x="1" y="1035.36" rx="2" style="fill:#f5c14e;fill-opacity:1;stroke:none"/>
  <path d="m 3 1035.36 c -1.108 0 -2 0.892 -2 2 l 0 1 c 0 -1.108 0.892 -2 2 -2 l 18 0 c 1.108 0 2 0.892 2 2 l 0 -1 c 0 -1.108 -0.892 -2 -2 -2 l -18 0 z" style="fill:#fff;opacity:0.1;fill-opacity:1;stroke:none"/>
  <path d="m 18 0 0 3 3 0 z" transform="translate(0,1028.3622)" style="fill:#fff;fill-opacity:1;stroke:none"/>
  <path d="m 21 1034.36 0 -3 -3 0 z" style="fill:#000;opacity:0.2;fill-opacity:1;stroke:none"/>
  <rect rx="0.5" y="1030.36" x="6" height="1" width="9" style="fill:#a1a195;fill-opacity:1;stroke:none"/>
  <rect width="11" height="1" x="6" y="1032.36" rx="0.5" style="fill:#a1a195;fill-opacity:1;stroke:none"/>
 </g>
</svg>

<?xml version="1.0" encoding="UTF-8" standalone="no"?>
<!-- Created with Inkscape (http://www.inkscape.org/) -->

<svg
   xmlns:dc="http://purl.org/dc/elements/1.1/"
   xmlns:cc="http://creativecommons.org/ns#"
   xmlns:rdf="http://www.w3.org/1999/02/22-rdf-syntax-ns#"
   xmlns:svg="http://www.w3.org/2000/svg"
   xmlns="http://www.w3.org/2000/svg"
   xmlns:sodipodi="http://sodipodi.sourceforge.net/DTD/sodipodi-0.dtd"
   xmlns:inkscape="http://www.inkscape.org/namespaces/inkscape"
   width="24"
   height="24"
   id="svg2"
   version="1.1"
   inkscape:version="0.91 r"
   sodipodi:docname="default-fileopen.svg"
   inkscape:export-filename="/media/Data/Main/Visuals/Icons/Numix/Desktop/repos/numix-wiki/Gjorgi/Numix-folders/48/New/folder-144.png"
   inkscape:export-xdpi="270"
   inkscape:export-ydpi="270">
  <defs
     id="defs4" />
  <sodipodi:namedview
     id="base"
     pagecolor="#ffffff"
     bordercolor="#666666"
     borderopacity="1.0"
     inkscape:pageopacity="0.0"
     inkscape:pageshadow="2"
     inkscape:zoom="43.394965"
     inkscape:cx="9.5258542"
     inkscape:cy="20.632998"
     inkscape:document-units="px"
     inkscape:current-layer="layer1"
     showgrid="true"
     inkscape:window-width="1920"
     inkscape:window-height="1023"
     inkscape:window-x="0"
     inkscape:window-y="28"
     inkscape:window-maximized="1"
     showguides="true"
     inkscape:guide-bbox="true">
    <inkscape:grid
       type="xygrid"
       id="grid2985"
       empspacing="5"
       visible="true"
       enabled="true"
       snapvisiblegridlinesonly="true" />
  </sodipodi:namedview>
  <metadata
     id="metadata7">
    <rdf:RDF>
      <cc:Work
         rdf:about="">
        <dc:format>image/svg+xml</dc:format>
        <dc:type
           rdf:resource="http://purl.org/dc/dcmitype/StillImage" />
        <dc:title />
      </cc:Work>
    </rdf:RDF>
  </metadata>
  <g
     inkscape:label="Layer 1"
     inkscape:groupmode="layer"
     id="layer1"
     transform="translate(0,-1028.3622)">
    <path
       style="fill:#e3e1cf;fill-opacity:1;stroke:none"
       d="M 5 0 C 4 0 3 1 3 2 L 3 10 C 3 11.108 3.446 12 4 12 L 20 12 C 20.554 12 21 11.108 21 10 L 21 3 L 18 0 L 5 0 z "
       transform="translate(0,1028.3622)"
       id="path2998" />
    <rect
       style="fill:#f5c14e;fill-opacity:1;stroke:none"
       id="rect2990"
       width="22"
       height="17"
       x="1"
       y="1035.3622"
       rx="2"
       ry="2" />
    <path
       style="opacity:0.1;fill:#ffffff;fill-opacity:1;stroke:none"
       d="m 3,1035.3622 c -1.108,0 -2,0.892 -2,2 l 0,1 c 0,-1.108 0.892,-2 2,-2 l 18,0 c 1.108,0 2,0.892 2,2 l 0,-1 c 0,-1.108 -0.892,-2 -2,-2 l -18,0 z"
       id="rect2991"
       inkscape:connector-curvature="0" />
    <path
       style="fill:#ffffff;stroke:none;stroke-width:1px;stroke-linecap:butt;stroke-linejoin:miter;stroke-opacity:1;fill-opacity:1"
       d="m 18,0 0,3 3,0 z"
       id="path3805"
       inkscape:connector-curvature="0"
       transform="translate(0,1028.3622)" />
    <path
       inkscape:connector-curvature="0"
       id="path3810"
       d="m 21,1034.3622 0,-3 -3,0 z"
       style="fill:#000000;fill-opacity:1;stroke:none;opacity:0.2" />
    <rect
       ry="0.5"
       rx="0.5"
       y="1030.3622"
       x="6"
       height="1.0000174"
       width="9"
       id="rect3927"
       style="fill:#a1a195;fill-opacity:1;stroke:none" />
    <rect
       style="fill:#a1a195;fill-opacity:1;stroke:none"
       id="rect3819"
       width="11"
       height="1.0000174"
       x="6"
       y="1032.3622"
       rx="0.5"
       ry="0.5" />
  </g>
</svg>
